tools/download-figma-icons/icons/solid/tick-shape.svg

<svg width="24" height="24" viewBox="0 0 24 24" fill="none" xmlns="http://www.w3.org/2000/svg">
<path fill-rule="evenodd" clip-rule="evenodd" d="M16.5418 9.7813L11.0587 15.2637C10.9124 15.4099 10.7204 15.4834 10.5284 15.4834C10.3372 15.4834 10.1452 15.4099 9.99819 15.2637L7.51049 12.776C7.21725 12.4827 7.21725 12.008 7.51049 11.7155C7.80373 11.4223 8.27772 11.4223 8.57097 11.7155L10.5284 13.673L15.4813 8.72082C15.7746 8.42758 16.2486 8.42758 16.5418 8.72082C16.835 9.01407 16.835 9.48806 16.5418 9.7813ZM23.9988 11.9825C23.9988 11.666 23.8653 11.363 23.6313 11.1501L21.6911 9.38534L22.489 6.88714C22.5858 6.58639 22.5498 6.2564 22.3923 5.98266C22.2333 5.70816 21.9648 5.51317 21.6566 5.44567L19.0946 4.88768L18.5359 2.32273C18.4676 2.01449 18.2719 1.74749 17.9981 1.59C17.7251 1.4325 17.3959 1.39575 17.0952 1.4925L14.5962 2.29048L12.8315 0.350271C12.407 -0.116219 11.5918 -0.116969 11.168 0.350271L9.40256 2.29048L6.90361 1.4925C6.60137 1.39575 6.27362 1.4325 6.00063 1.59C5.72763 1.74749 5.53114 2.01449 5.46289 2.32498L4.90415 4.88768L2.34295 5.44567C2.03396 5.51317 1.76621 5.70816 1.60722 5.98266C1.44972 6.2564 1.41372 6.58639 1.51047 6.88714L2.3077 9.38534L0.368243 11.1508C0.134247 11.363 0 11.666 0 11.9825C0 12.2983 0.134247 12.6013 0.368243 12.8143L2.3077 14.579L1.51047 17.0772C1.41372 17.3779 1.44972 17.7079 1.60722 17.9824C1.76621 18.2562 2.03396 18.4519 2.3422 18.5187L4.90415 19.0774L5.46364 21.6416C5.53114 21.9498 5.72763 22.2176 6.00063 22.3751C6.27362 22.5318 6.60362 22.5686 6.90361 22.4718L9.40256 21.6738L11.1673 23.6133C11.3795 23.8473 11.6833 23.9823 11.999 23.9823C12.3155 23.9823 12.62 23.8473 12.8315 23.614L14.5962 21.6738L17.0952 22.4718C17.3974 22.5686 17.7251 22.5318 17.9981 22.3751C18.2719 22.2176 18.4676 21.9498 18.5366 21.6401L19.0946 19.0774L21.6558 18.5187C21.9648 18.4519 22.2333 18.2562 22.3923 17.9824C22.5498 17.7079 22.5858 17.3779 22.4898 17.0779L21.6911 14.579L23.6313 12.8135C23.8653 12.6013 23.9988 12.2983 23.9988 11.9825Z" fill="black"/>
</svg>

<svg width="24" height="24" viewBox="0 0 24 24" fill="none" xmlns="http://www.w3.org/2000/svg"><path fill-rule="evenodd" clip-rule="evenodd" d="m16.542 9.781-5.483 5.483a.748.748 0 0 1-1.06 0L7.51 12.776a.75.75 0 1 1 1.061-1.06l1.957 1.957 4.953-4.952a.75.75 0 1 1 1.06 1.06Zm7.457 2.201c0-.316-.134-.619-.368-.832l-1.94-1.765.798-2.498a1.126 1.126 0 0 0-.832-1.441l-2.562-.558-.56-2.565a1.128 1.128 0 0 0-1.44-.83l-2.499.797L12.832.35c-.425-.466-1.24-.467-1.664 0L9.403 2.29l-2.5-.798a1.122 1.122 0 0 0-1.44.833l-.559 2.563-2.561.558a1.127 1.127 0 0 0-.832 1.441l.797 2.498-1.94 1.766a1.124 1.124 0 0 0 0 1.663l1.94 1.765-.798 2.498c-.096.3-.06.63.097.905.16.274.427.47.735.537l2.562.558.56 2.565a1.126 1.126 0 0 0 1.44.83l2.499-.798 1.764 1.94a1.127 1.127 0 0 0 1.665 0l1.764-1.94 2.5.798a1.125 1.125 0 0 0 1.44-.832l.559-2.563 2.56-.558a1.13 1.13 0 0 0 .737-.537 1.13 1.13 0 0 0 .098-.904l-.799-2.499 1.94-1.766c.234-.212.368-.515.368-.83Z" fill="currentColor"/></svg>
